img/header__bottom-sprite.svg

<svg xmlns="http://www.w3.org/2000/svg">
    <symbol id="leaves"> 
        <path d="M5.68662 22.4709C5.68662 22.9568 5.92954 23.4426 5.92954 23.9284C5.92954 25.8718 6.17246 29.0297 6.17246 29.0297H7.38704C7.38704 29.0297 7.38704 23.9284 6.65829 21.2563C5.92954 18.3413 5.68662 12.9971 7.38704 9.11043L6.17246 8.6246C6.17246 8.6246 4.71495 11.5396 4.71495 16.1551C4.71495 19.0701 4.95787 20.2847 5.20078 21.4992C4.22911 20.7705 1.55701 18.3413 1.79993 13.24C2.28577 7.41001 7.38704 2.06581 7.38704 2.06581C7.38704 2.06581 16.375 10.5679 8.35872 20.0417L9.33039 20.7705C9.33039 20.7705 12.9742 16.6409 12.9742 12.0254C12.9742 7.41001 11.0308 3.52332 7.38704 0.365387C7.38704 0.365387 1.07118 6.43834 0.585343 13.7259C0.342425 20.5276 5.4437 22.9568 5.4437 22.9568L5.68662 22.4709Z" fill="#C6F7FF"/>
        <path d="M18.3183 16.1551C9.33038 18.8272 9.81622 27.5722 10.0591 29.5156C6.9012 32.6735 5.4437 35.5885 5.4437 35.5885L6.41537 36.0743C15.6462 20.7705 29.9784 23.6855 29.9784 23.6855V22.4709C21.2334 21.4993 15.1604 24.9001 11.0308 28.301C10.7879 25.143 12.2454 17.6126 21.4763 16.8838C32.1647 16.6409 37.2659 22.9568 37.2659 22.9568C31.6788 31.9447 25.363 33.1593 21.4763 33.6452C17.3467 34.3739 12.2454 31.4589 12.2454 31.4589L11.7596 32.4306C11.7596 32.4306 16.1321 35.3456 21.7192 34.8597C33.8651 33.4022 38.4805 22.7138 38.4805 22.7138C37.2659 20.2847 28.278 13.7259 18.3183 16.1551Z" fill="#C6F7FF"/>
    </symbol>
    <symbol id='car'>
        <path d="M6.84767 12.6328L9.01168 10.9016H9.22808C9.87729 10.9016 10.3101 10.4688 10.3101 9.81963C10.3101 9.38683 10.0937 9.17043 9.87729 8.95403V4.40961H8.79528V8.95403C8.36248 9.17043 8.14608 9.38683 8.14608 9.81963V10.036L5.98207 11.7672L6.84767 12.6328Z" fill="#C6F7FF"/>
        <path d="M39.7406 24.3185V17.3936C39.7406 15.2296 38.875 14.364 38.875 14.364C38.875 14.364 36.711 11.5508 35.4126 9.81961C34.1142 8.08841 32.383 8.08841 32.383 8.08841H25.0254V7.0064C25.0254 5.49159 23.9434 4.40959 22.4285 4.40959H16.1529C14.6381 2.24558 12.0413 0.730774 9.22809 0.730774C4.46727 0.730774 0.788452 4.62599 0.788452 9.38681C0.788452 11.3344 1.43765 13.0656 2.51966 14.5804V24.1021C2.51966 25.6169 3.60166 26.6989 5.11647 26.6989H6.19848V26.9153C6.19848 29.5121 8.36249 31.6761 10.9593 31.6761C13.5561 31.6761 15.7201 29.5121 15.7201 26.9153C15.7201 26.6989 15.7201 26.6989 15.7201 26.6989H22.2121H22.4285C23.0777 26.6989 24.5926 26.6989 26.5402 26.6989V26.9153C26.5402 29.5121 28.7042 31.6761 31.301 31.6761C33.8978 31.6761 36.0618 29.5121 36.0618 26.9153C36.0618 26.6989 36.0618 26.6989 36.0618 26.6989C36.2782 26.6989 36.4946 26.6989 36.4946 26.6989C40.1734 26.9153 39.7406 24.3185 39.7406 24.3185ZM38.6586 16.7444C38.6586 16.7444 38.6586 16.9608 38.6586 17.3936H30.219C29.7862 17.3936 29.3534 16.9608 29.3534 16.528V13.0656C29.3534 12.6328 29.7862 12.2 30.219 12.2H35.8454C36.4946 12.8492 37.1438 13.7148 37.5766 14.364C38.6586 15.6624 38.6586 16.7444 38.6586 16.7444ZM9.22809 2.02918C13.3397 2.02918 16.8021 5.27519 16.8021 9.60321C16.8021 13.9312 13.3397 16.9608 9.22809 16.9608C5.11647 16.9608 1.87046 13.4984 1.87046 9.38681C1.87046 5.27519 5.11647 2.02918 9.22809 2.02918ZM10.7429 30.5941C8.79529 30.5941 7.28048 29.0793 7.28048 27.1317C7.28048 25.1841 8.79529 23.6693 10.7429 23.6693C12.6905 23.6693 14.2053 25.1841 14.2053 27.1317C14.2053 29.0793 12.6905 30.5941 10.7429 30.5941ZM15.0709 25.6169C14.4217 23.8857 12.6905 22.3709 10.7429 22.3709C8.79529 22.3709 7.06408 23.6693 6.41488 25.6169H4.90007C4.25087 25.6169 3.60166 24.9677 3.60166 24.3185V15.6624C5.11647 16.9608 7.06408 17.8264 9.22809 17.8264C13.9889 17.8264 17.6677 13.9312 17.6677 9.38681C17.6677 8.08841 17.2349 6.79 16.8021 5.708H22.4285C23.0777 5.708 23.7269 6.3572 23.7269 7.0064V24.3185C23.7269 24.9677 23.0777 25.6169 22.4285 25.6169H15.0709ZM31.0846 30.5941C29.137 30.5941 27.6222 29.0793 27.6222 27.1317C27.6222 25.1841 29.137 23.6693 31.0846 23.6693C33.0322 23.6693 34.547 25.1841 34.547 27.1317C34.547 29.0793 33.0322 30.5941 31.0846 30.5941ZM36.4946 25.8333H35.629C34.9798 23.8857 33.2486 22.5873 31.301 22.5873C29.137 22.5873 27.4058 23.8857 26.973 25.8333H24.809C25.2418 25.4005 25.4582 24.9677 25.4582 24.3185V8.95401C25.4582 8.95401 30.219 8.95401 32.1666 8.95401C34.1142 8.95401 34.9798 10.2524 34.9798 10.2524C34.9798 10.2524 34.7634 10.6852 35.1962 11.118H30.219C29.137 11.118 28.4878 11.9836 28.4878 12.8492V16.3116C28.4878 17.3936 29.3534 18.0428 30.219 18.0428H38.875C38.875 19.7741 38.875 22.3709 38.875 23.6693C38.6586 26.0497 36.4946 25.8333 36.4946 25.8333Z" fill="#C6F7FF"/>
    </symbol>
    <symbol id="figure">
        <path d="M10.5679 7.16711C10.5679 7.65294 11.5396 8.13878 12.9971 8.13878C14.4546 8.13878 15.4263 7.65294 15.4263 7.16711C15.4263 6.68127 14.4546 6.19543 12.9971 6.19543C11.7825 6.19543 10.5679 6.43835 10.5679 7.16711Z" fill="#C6F7FF"/>
        <path d="M36.8031 16.1551C36.8031 13.7259 34.8597 11.7825 32.4306 11.7825H31.4589H10.0821C10.0821 11.7825 4.25207 12.0254 1.57998 7.41001C1.82289 4.00916 4.49499 1.57998 7.89584 1.57998H17.6126C21.2563 1.57998 23.9284 4.49499 23.9284 7.89584V9.11043H25.143V8.13876C25.143 3.76624 21.7422 0.365387 17.3696 0.365387H8.13876C3.76624 0.365387 0.365387 3.76624 0.365387 8.13876V11.2967V11.7825V19.5559C0.365387 23.9284 3.76624 27.3293 8.13876 27.3293H9.83919V26.1147H7.89584C4.25207 26.1147 1.57998 23.1997 1.57998 19.7988V11.7825V11.2967V9.59627C2.30873 10.5679 4.73791 12.9971 9.83919 12.9971C17.1267 12.9971 31.216 12.9971 31.216 12.9971H32.4306C34.131 12.9971 35.3456 14.2117 35.3456 15.9121V17.3696V17.8555C35.3456 19.5559 34.131 20.7705 32.4306 20.7705H32.1876H16.8838C14.4546 20.7705 12.5113 22.7138 12.5113 25.143V31.7018C12.5113 34.131 14.4546 36.0743 16.8838 36.0743H32.4306C34.8597 36.0743 36.8031 34.131 36.8031 31.7018V25.143C36.8031 25.143 36.8031 19.313 36.8031 17.6126C36.8031 17.6126 36.8031 17.6126 36.8031 17.3696V16.1551ZM35.3456 32.1876C35.3456 33.8881 34.131 35.1027 32.4306 35.1027H16.6409C14.9405 35.1027 13.7259 33.8881 13.7259 32.1876V25.143C13.7259 23.4426 14.9405 22.228 16.6409 22.228H21.2563V26.3576H22.4709V22.228H28.058H30.2443V26.3576H31.4589V22.228H32.4306C33.6451 22.228 34.8597 21.7422 35.5885 21.0134V32.1876H35.3456Z" fill="#C6F7FF"/>
    </symbol>
</svg>

<?xml version="1.0" encoding="utf-8"?><svg xmlns="http://www.w3.org/2000/svg" xmlns:xlink="http://www.w3.org/1999/xlink"><symbol viewBox="0 0 39.38 30.95" id="car" xmlns="http://www.w3.org/2000/svg"><path d="M6.848 12.633l2.164-1.731h.216c.65 0 1.082-.433 1.082-1.082 0-.433-.216-.65-.433-.866V4.41H8.795v4.544c-.433.216-.649.433-.649.866v.216l-2.164 1.731.866.866z"/><path d="M39.74 24.319v-6.925c0-2.164-.865-3.03-.865-3.03s-2.164-2.813-3.462-4.544c-1.299-1.732-3.03-1.732-3.03-1.732h-7.358V7.006c0-1.514-1.082-2.596-2.596-2.596h-6.276C14.638 2.246 12.04.73 9.228.73 4.468.73.788 4.627.788 9.388c0 1.947.65 3.679 1.732 5.193v9.522c0 1.515 1.082 2.597 2.596 2.597h1.082v.216c0 2.597 2.164 4.761 4.761 4.761s4.761-2.164 4.761-4.76V26.7h10.82v.216c0 2.597 2.164 4.761 4.761 4.761s4.76-2.164 4.76-4.76V26.7h.434c3.678.216 3.246-2.38 3.246-2.38zm-1.081-7.575v.65h-8.44c-.433 0-.866-.433-.866-.866v-3.462c0-.433.433-.866.866-.866h5.626c.65.65 1.299 1.515 1.732 2.164 1.082 1.298 1.082 2.38 1.082 2.38zM9.229 2.03c4.11 0 7.573 3.246 7.573 7.574 0 4.328-3.462 7.358-7.574 7.358S1.87 13.498 1.87 9.387c0-4.112 3.246-7.358 7.358-7.358zm1.514 28.565c-1.948 0-3.463-1.515-3.463-3.462 0-1.948 1.515-3.463 3.463-3.463 1.947 0 3.462 1.515 3.462 3.463 0 1.947-1.514 3.462-3.462 3.462zm4.328-4.977c-.65-1.731-2.38-3.246-4.328-3.246-1.948 0-3.679 1.298-4.328 3.246H4.9c-.65 0-1.298-.65-1.298-1.299v-8.656c1.514 1.299 3.462 2.164 5.626 2.164 4.76 0 8.44-3.895 8.44-8.44 0-1.298-.433-2.596-.866-3.678h5.627c.649 0 1.298.65 1.298 1.298V24.32c0 .649-.65 1.298-1.299 1.298h-7.357zm16.014 4.977c-1.948 0-3.463-1.515-3.463-3.462 0-1.948 1.515-3.463 3.463-3.463 1.947 0 3.462 1.515 3.462 3.463 0 1.947-1.515 3.462-3.462 3.462zm5.41-4.76h-.866c-.65-1.948-2.38-3.247-4.328-3.247-2.164 0-3.895 1.299-4.328 3.246h-2.164c.433-.432.65-.865.65-1.514V8.954h6.708c1.947 0 2.813 1.298 2.813 1.298s-.217.433.216.866H30.22c-1.082 0-1.731.866-1.731 1.731v3.463c0 1.082.865 1.73 1.731 1.73h8.656v5.627c-.216 2.38-2.38 2.164-2.38 2.164z"/></symbol><symbol viewBox="0 0 36.44 35.71" id="figure" xmlns="http://www.w3.org/2000/svg"><path d="M10.568 7.167c0 .486.972.972 2.43.972 1.457 0 2.428-.486 2.428-.972s-.971-.972-2.429-.972c-1.214 0-2.43.243-2.43.972z"/><path d="M36.803 16.155a4.354 4.354 0 00-4.372-4.373H10.082s-5.83.243-8.502-4.372c.243-3.4 2.915-5.83 6.316-5.83h9.717c3.643 0 6.315 2.915 6.315 6.316V9.11h1.215v-.97c0-4.373-3.4-7.774-7.773-7.774H8.139C3.766.365.365 3.766.365 8.14v11.417c0 4.372 3.401 7.773 7.774 7.773h1.7v-1.214H7.896c-3.644 0-6.316-2.915-6.316-6.316V9.597c.729.97 3.158 3.4 8.26 3.4h22.59c1.7 0 2.915 1.215 2.915 2.915v1.943c0 1.7-1.215 2.915-2.915 2.915H16.884a4.354 4.354 0 00-4.373 4.373v6.559a4.354 4.354 0 004.373 4.372H32.43a4.354 4.354 0 004.372-4.372V16.155zm-1.457 16.033c0 1.7-1.215 2.915-2.915 2.915H16.64c-1.7 0-2.915-1.215-2.915-2.915v-7.045c0-1.7 1.214-2.915 2.915-2.915h4.615v4.13h1.215v-4.13h7.773v4.13h1.215v-4.13h.972c1.214 0 2.429-.486 3.158-1.215v11.175h-.243z"/></symbol><symbol viewBox="0 0 38.14 35.71" id="leaves" xmlns="http://www.w3.org/2000/svg"><path d="M5.687 22.47c0 .487.243.973.243 1.458 0 1.944.242 5.102.242 5.102h1.215s0-5.102-.729-7.774c-.728-2.915-.971-8.259.729-12.146l-1.215-.485s-1.457 2.915-1.457 7.53c0 2.915.243 4.13.486 5.344-.972-.729-3.644-3.158-3.401-8.259.486-5.83 5.587-11.174 5.587-11.174s8.988 8.502.972 17.976l.971.728s3.644-4.13 3.644-8.745c0-4.615-1.943-8.502-5.587-11.66 0 0-6.316 6.073-6.802 13.36-.243 6.803 4.859 9.232 4.859 9.232l.243-.486z"/><path d="M18.318 16.155c-8.988 2.672-8.502 11.417-8.259 13.36-3.158 3.158-4.615 6.074-4.615 6.074l.971.485c9.231-15.303 23.563-12.388 23.563-12.388V22.47c-8.745-.972-14.818 2.43-18.947 5.83-.243-3.158 1.214-10.688 10.445-11.417 10.689-.243 15.79 6.073 15.79 6.073-5.587 8.988-11.903 10.202-15.79 10.688-4.13.729-9.23-2.186-9.23-2.186l-.486.972s4.372 2.915 9.96 2.429c12.145-1.458 16.76-12.146 16.76-12.146-1.214-2.43-10.202-8.988-20.162-6.559z"/></symbol></svg>
